X:63
T:Frissonnante Musette
C:A. Boccoz
N:Tabledited by Mike Stangeland
L:1/8
Q:1/4=180
M:3/4
K:G
z6 | zD EF ED | B3d BG | F3d BG | E6 | zD EF ED | BB ^AB dB | AG FG AB | [c6E6A,6] | 
zE F^G AB | c3e cA | G3e cG | F6 | zD ED ^CD | A3F ED | ^A3F ED | B6 | zD EF ED | 
B3d BG | F3d BG | E6 | zD EF ED | BB ^AB dB | AG FG AB | A6 | zE ^DE FG | A3G FG | 
^A3G FG | B6 | zD EF ED | [E6^C6] | [F6C6] | [B6G6B,6] | [B2G2B,2] zF G^G |: AG EG EG | 
AG EG EG | AF DF DF | A3F Ad | ^cd cd cd | B^c Bc Bc | A6 | A6 | AG EG EG | AG EG EG | 
AF DF DF | A2 zF Ad | ^cd Bc AB | GA FG EF | D6 |1 zF GA GF :|2 zD EF ED |] [B6G6B,6] | 
[B2G2B,2] F2 =F2 | [E4C4] [G2E2] | [A4E4] [c2E2] | [B6=F6] | [B2=F2] A2 G2 | [=F4B,4] [G2B,2] | 
[B4=F4] [d2F2] | [c6E6] | [c2E2] d2 e2 | B2 c2 d2 | A2 B2 c2 | =F6 | =F2 D2 E2 | 
=F2 G2 A2 | B2 c2 B2 | A4 E2 | G6 | [E4C4] [G2E2] | [A4E4] [c2E2] | [B6=F6] | 
[B2=F2] A2 G2 | =F4 E2 | B4 d2 | [c6E6A,6] | z2 B2 c2 | A4 c2 | ^G4 c2 | G6 | 
[E2C2] [=F2D2] [G2E2] | [A6F6] | [B6=F6] | [c6E6] | zD EF ED | 


